X: 133030
T: O WHISTLE AND I'LL COME TO YOU MY LOVE
Q: "Scotch Jig."
R: Jig.
%R: jig
B: James Kerr "Merry Melodies" v.1 p.33 s.0 #30
Z: 2016 John Chambers <jc:trillian.mit.edu>
N: The rhythm of repeats isn't correct; not fixed.
M: 6/8
L: 1/8
K: D
vde |\
fdB AGF | Eee ede | fdB AFA | Bdd dde |\
fdB AGF | Egf eag | fdB AFA | Bdd d2 :|
uA |\
dfa dfa | dfa afe | dfa dfa | bee efe |\
dfa dfa | dgb aag | fdB AGF | Dee e |]

%%sep 1 1 500
%%sep 1 1 500

